icons/mobile/24/svg/experiments-24.svg

<svg width="24" height="24" viewBox="0 0 24 24" fill="none" xmlns="http://www.w3.org/2000/svg">
<path d="M7.75027 15.9996C8.44039 15.9997 9.00007 16.5595 9.00027 17.2496C9.00027 17.9399 8.44051 18.4995 7.75027 18.4996C7.05991 18.4996 6.50027 17.94 6.50027 17.2496C6.50046 16.5594 7.06003 15.9996 7.75027 15.9996Z" fill="black"/>
<path fill-rule="evenodd" clip-rule="evenodd" d="M12.5003 9.49961C14.1569 9.49974 15.5001 10.843 15.5003 12.4996C15.5003 14.1564 14.157 15.4995 12.5003 15.4996C10.8434 15.4996 9.50027 14.1565 9.50027 12.4996C9.50046 10.8429 10.8435 9.49961 12.5003 9.49961ZM12.5003 11.2496C11.81 11.2496 11.2505 11.8094 11.2503 12.4996C11.2503 13.19 11.8099 13.7496 12.5003 13.7496C13.1905 13.7495 13.7503 13.1899 13.7503 12.4996C13.7501 11.8095 13.1904 11.2497 12.5003 11.2496Z" fill="black"/>
<path d="M17.2503 6.49961C17.9404 6.49974 18.5001 7.0595 18.5003 7.74961C18.5003 8.43989 17.9405 8.99948 17.2503 8.99961C16.5599 8.99961 16.0003 8.43997 16.0003 7.74961C16.0005 7.05942 16.56 6.49961 17.2503 6.49961Z" fill="black"/>
<path fill-rule="evenodd" clip-rule="evenodd" d="M14.8831 3.46445C17.403 2.65048 19.5012 2.9118 20.7952 4.20371C22.0871 5.49667 22.3503 7.59592 21.5354 10.1158C21.2815 10.9007 20.9244 11.7008 20.4885 12.4996C20.9245 13.2986 21.2814 14.0994 21.5354 14.8844C22.3502 17.404 22.0859 19.5036 20.7952 20.7955C19.9962 21.5955 18.8868 22.0006 17.5608 22.0006C16.7439 22.0005 15.844 21.8457 14.8831 21.5357C14.0981 21.2818 13.2982 20.9248 12.4993 20.4889C11.7004 20.9248 10.8994 21.2818 10.1155 21.5357C9.1545 21.8467 8.25379 22.0006 7.43679 22.0006C6.11093 22.0005 5.00332 21.5944 4.20339 20.7955C2.91153 19.5026 2.64831 17.4032 3.46316 14.8844C3.71716 14.0994 4.07403 13.2986 4.51003 12.4996C4.07411 11.7007 3.71712 10.8997 3.46316 10.1158C2.64821 7.59588 2.91241 5.49569 4.20339 4.20371C5.49641 2.91195 7.59467 2.65051 10.1155 3.46445C10.9003 3.71844 11.7005 4.07542 12.4993 4.51133C13.2982 4.07536 14.0991 3.71845 14.8831 3.46445ZM19.4036 14.2398C18.7237 15.2068 17.9341 16.1517 17.0432 17.0426C16.1523 17.9335 15.2064 18.723 14.2405 19.4029C14.6374 19.5829 15.0332 19.7447 15.4231 19.8707C17.2569 20.4646 18.7648 20.352 19.5579 19.5582C20.3498 18.7663 20.4652 17.2582 19.8714 15.4234C19.7454 15.0345 19.5836 14.6378 19.4036 14.2398ZM17.5481 4.75156C16.9191 4.75156 16.2011 4.87656 15.4241 5.12754C15.0352 5.25352 14.6394 5.41632 14.2415 5.59629C14.5622 5.82213 14.8759 6.07793 15.1917 6.32774C14.9118 6.73164 14.7455 7.22079 14.7454 7.74863C14.7454 7.92263 14.7631 8.09342 14.7971 8.25742C14.0501 7.60642 13.2802 7.02474 12.5022 6.53574C11.3683 7.2487 10.2465 8.14406 9.19753 9.19297C8.14864 10.2419 7.25329 11.3648 6.53933 12.4986C7.03033 13.2796 7.61284 14.0543 8.26784 14.8043C8.10094 14.7693 7.92911 14.7486 7.75222 14.7486C7.22626 14.7486 6.73821 14.915 6.33523 15.1939C6.08323 14.8769 5.8259 14.5619 5.5989 14.2389C5.4189 14.6359 5.25712 15.0325 5.13112 15.4225C4.53728 17.2573 4.65166 18.7653 5.4446 19.5572C6.2367 20.3499 7.74265 20.4636 9.57937 19.8697C9.96824 19.7438 10.3641 19.5819 10.762 19.402C10.44 19.174 10.1239 18.9166 9.80691 18.6656C10.0858 18.2627 10.2522 17.7756 10.2522 17.2486C10.2522 17.0718 10.2325 16.8999 10.1975 16.733C10.9474 17.3869 11.7213 17.9706 12.5022 18.4615C13.636 17.7486 14.7581 16.8541 15.8069 15.8043C16.8549 14.7563 17.7501 13.6326 18.4641 12.4986C17.9732 11.7188 17.3914 10.9457 16.7376 10.1969C16.9004 10.2308 17.0706 10.2486 17.2434 10.2486C17.7723 10.2486 18.2614 10.0823 18.6653 9.80137C18.9172 10.1193 19.1757 10.4365 19.4036 10.7604C19.5836 10.3634 19.7454 9.96676 19.8714 9.57676L19.8723 9.57578C20.4662 7.74089 20.3518 6.23298 19.5589 5.44102C19.1019 4.98309 18.407 4.75156 17.5481 4.75156ZM7.45339 4.75254C6.59439 4.75254 5.89867 4.98399 5.44167 5.44199L5.44069 5.44297C4.64891 6.235 4.53432 7.74298 5.12819 9.57774C5.25419 9.96674 5.41597 10.3633 5.59597 10.7613C6.27597 9.79433 7.0663 8.84764 7.9573 7.95664C8.84816 7.06581 9.79419 6.27717 10.76 5.59727C10.3631 5.41729 9.96737 5.25451 9.57741 5.12852C8.80153 4.87755 8.08332 4.75258 7.45339 4.75254Z" fill="black"/>
</svg>

<!-- This Source Code Form is subject to the terms of the Mozilla Public
   - License, v. 2.0. If a copy of the MPL was not distributed with this
   - file, You can obtain one at http://mozilla.org/MPL/2.0/. -->
<svg xmlns="http://www.w3.org/2000/svg" width="24" height="24" fill="none" viewBox="0 0 24 24">
    <path fill="#000" d="M7.75 16a1.25 1.25 0 1 1 0 2.5 1.25 1.25 0 0 1 0-2.5" />
    <path fill="#000" fill-rule="evenodd" d="M12.5 9.5a3 3 0 1 1 0 6 3 3 0 0 1 0-6m0 1.75a1.25 1.25 0 1 0 0 2.5 1.25 1.25 0 0 0 0-2.5" clip-rule="evenodd" />
    <path fill="#000" d="M17.25 6.5a1.25 1.25 0 1 1 0 2.5 1.25 1.25 0 0 1 0-2.5" />
    <path fill="#000" fill-rule="evenodd" d="M14.883 3.464c2.52-.814 4.618-.552 5.912.74 1.292 1.293 1.555 3.392.74 5.912a14 14 0 0 1-1.047 2.384c.436.799.793 1.6 1.047 2.384.815 2.52.55 4.62-.74 5.912-.799.8-1.908 1.205-3.234 1.205-.817 0-1.717-.155-2.678-.465a14 14 0 0 1-2.384-1.047c-.799.436-1.6.793-2.383 1.047-.961.31-1.862.465-2.68.465-1.325 0-2.433-.407-3.233-1.206-1.291-1.292-1.555-3.392-.74-5.91.254-.786.611-1.586 1.047-2.385-.436-.8-.793-1.6-1.047-2.384-.815-2.52-.55-4.62.74-5.912 1.293-1.292 3.392-1.553 5.913-.74.784.254 1.585.611 2.383 1.047.8-.436 1.6-.793 2.384-1.047m4.52 10.776a21.4 21.4 0 0 1-5.163 5.163c.397.18.793.342 1.183.468 1.834.594 3.342.481 4.135-.313.792-.792.907-2.3.313-4.135a12 12 0 0 0-.467-1.183m-1.855-9.488c-.629 0-1.347.125-2.124.376-.389.126-.785.288-1.182.468.32.226.634.482.95.732a2.5 2.5 0 0 0-.395 1.93 18.5 18.5 0 0 0-2.295-1.722 19 19 0 0 0-3.304 2.657 19 19 0 0 0-2.659 3.306 18.5 18.5 0 0 0 1.729 2.305 2.48 2.48 0 0 0-1.933.39c-.252-.317-.51-.632-.736-.955-.18.397-.342.793-.468 1.183-.594 1.835-.48 3.343.314 4.135.792.793 2.298.907 4.134.313.39-.126.785-.288 1.183-.468-.322-.228-.638-.485-.955-.736a2.48 2.48 0 0 0 .39-1.933c.75.654 1.524 1.238 2.305 1.729a19 19 0 0 0 3.305-2.658 19 19 0 0 0 2.657-3.305 18.6 18.6 0 0 0-1.726-2.302 2.5 2.5 0 0 0 1.927-.396c.252.318.51.636.739.96.18-.398.341-.794.467-1.184l.001-.001c.594-1.835.48-3.343-.313-4.135-.457-.458-1.152-.69-2.01-.69m-10.095 0c-.859 0-1.554.232-2.011.69l-.001.001c-.792.792-.907 2.3-.313 4.135.126.389.288.785.468 1.183a21.4 21.4 0 0 1 5.164-5.164 11 11 0 0 0-1.183-.468c-.775-.251-1.494-.376-2.124-.376" clip-rule="evenodd" />
</svg>
